X:1
T:Title
%%score 1 2
L:1/8
Q:1/4=100
M:3/2
K:Eb
V:1 treble nm="Strings 1, Treble"
V:2 bass nm="Strings 1, Bass"
V:1
 z4 z2 [EB]2 [EB]2 [EB]2 | [EA]4 [EG]4 [CG]3 [CF] | [CF]6 [DF]2 [DA]2 [DA]2 | %3
 [DG]4 [DF]4 [B,F]3 [B,E] | [B,E]6 [=EB]2 [EB]2 [EB]2 | [=EA]4 [EG]4 [EG]3 F | %6
 [FA]6 [CA]2 [CG]2 [CF]2 | %7
 [B,F]4 [B,E]4 [A,E]3 [B,D][Q:1/4=99][Q:1/4=97][Q:1/4=96][Q:1/4=94][Q:1/4=93][Q:1/4=91][Q:1/4=90][Q:1/4=88][Q:1/4=87][Q:1/4=85][Q:1/4=84][Q:1/4=82][Q:1/4=81][Q:1/4=79][Q:1/4=78][Q:1/4=77][Q:1/4=75] | %8
 [B,E]8 z4 |] %9
V:2
 z4 z2 [E,G,]2 [E,G,]2 [E,G,]2 | [E,C]4 [E,B,]4 [A,,B,]3 [A,,A,] | %2
 [A,,A,]6 [B,,A,]2 [B,,C]2 [B,,C]2 | [B,,B,]4 [B,,A,]4 [E,A,]3 [E,G,] | %4
 [E,G,]6 [C,G,]2 [C,G,]2 [C,G,]2 | [C,C]4 [C,B,]4 [F,B,]3 [F,A,] | %6
 [F,C]6 [F,,F,]2 [G,,=E,]2 [A,,F,]2 | [B,,G,]4 [B,,G,]4 [B,,F,]3 [B,,A,] | [E,G,]8 z4 |] %9

